X:1
T:Title
%%score { ( 1 5 6 ) | ( 2 3 4 ) }
L:1/8
M:4/4
K:G
V:1 treble nm="Grand Piano"
V:5 treble 
V:6 treble 
V:2 bass 
V:3 bass 
V:4 bass 
V:1
 z4 z2[Q:1/4=100] GA | [DB]>B cB [DB]<A EF | [B,G]6 GA | [GB]>d dd [ce]ddB | [FA]6 [FA][=FB] | %5
 [Ec]>c [Ec][Ec] [Ec]2 GA | [DB]>B [DB][DB] [DB]2 BB | [GB]>A Fd [Gd]<^c Ae | %8
[M:7/8] d2- [cd-] [Ad-] [Fd]3 |[M:1/4] (3DGB |[M:4/4] d6 z2 | c6 z2 | %12
 [Ac]>[Ac] [Ac][Gc] [Fc]<[Fc] [Fd][DFA] | [DGB]6 [G,DG]A | B>B BB [Gd]2 [GB][DG] | %15
[M:9/8] [Gc]<[Gc][Gc] [Gc] [G^c]2- [Gc][Gc][Gc] | %16
[M:37/32] [Gd]/4-[Gd]/4-[Gd]/-<[Gd]/[Gd]/[Ge]/-<[Ge]/[Ge]/-<[Ge]/[Gd]/ z/4 z/4 z/4 z/4 z/4 z/4 z/4 z/4 z/4 z/4 z/4 z/4 z/ [B,DG]/4-[B,DG]/-<[B,DG]/ | %17
[M:3/4] [B,DG]6 |] %18
V:2
 z4 z2 B,C | z z/ D/ ED z/ C3/2 CC | G,,B,,D,G, G,,2 B,D | z z/[K:treble] B/ BB z BBG | %4
 D,F,A,B, CA,D,G, | .C,>E G,C z2 E^D | .G,,>D D,G, z2[K:treble] DG | %7
 z z/[K:treble] F/ DF[K:bass] z/ G3/2 GG |[M:7/8] z z z2 C3 |[M:1/4] z2 | %10
[M:4/4] z2 [G,B,]>[G,B,] [G,B,]2 z2 | z2 [D,A,]>[D,A,] [D,A,]2 [D,D][D,D] | %12
 [D,D]>[D,D] [F,D][E,D] [D,D]<[D,D] [D,A,]D, | G,2 D,B,, G,,2 B,,[D,F,D] | %14
 [G,D]>[G,D] [G,D][G,D] [=F,B,]2 [F,D][F,B,] | %15
[M:9/8] [E,C]<[E,C][E,C] [E,C] [^D,_B,]2- [D,B,][D,B,][D,B,] | %16
[M:37/32] [D,B,]/4-[D,B,]/4-[D,B,]/-<[D,B,]/[D,B,]/[^C,_B,]/-<[C,B,]/[C,B,]/-<[C,B,]/[D,=B,]/D,/4-D,/4-D,/4-D,/4-D,/-<D,/ z/4 z/4 z/4 z/4 z/ G,,/4-G,,/-<G,,/ | %17
[M:3/4] G,,6 |] %18
V:3
 x8 | G,,4 D,4 | x8 | z4[K:treble] G,4 | x8 | z E, z2 C,4 | z B,, z2 G,,4[K:treble] | %7
 z4[K:treble][K:bass] A,4- |[M:7/8] A,- A,3 z z2 |[M:1/4] x2 |[M:4/4] x8 | x8 | x8 | x8 | x8 | %15
[M:9/8] x9 | %16
[M:37/32] z/4 z/4 z/4 z/4 z/4 z/4 z/4 z/4 z/4 z/4 z/4 z/4 z/4 z/4 z/4 z/4 z/4 z/4 z/4 z/4 z/4 z/4 z/4 z/4 z/ D,/4-D,/4-D,/4-D,/4-D,/-<D,/ z/4 z/ | %17
[M:3/4] x6 |] %18
V:4
 x8 | x8 | x8 | G,,8[K:treble] | x8 | x8 | x6[K:treble] x2 | A,,8[K:treble][K:bass] | %8
[M:7/8] D,-D,-D,- D,- D,3 |[M:1/4] x2 |[M:4/4] x8 | x8 | x8 | x8 | x8 |[M:9/8] x9 | %16
[M:37/32] x37/4 |[M:3/4] x6 |] %18
V:5
 x8 | x8 | x8 | x8 | x8 | x8 | x8 | x8 |[M:7/8] F2 z z z z2 |[M:1/4] x2 |[M:4/4] z2 G>G G2 (3dcB | %11
 z2 F>F F2 [FA][GB] | x8 | x8 | x8 |[M:9/8] x9 | %16
[M:37/32] z/4 z/4 z/4 z/4 z/4 z/4 z/4 z/4 z/4 z/4 z/4 z/4 z/4 z/4 z/4 z/4 z/ [DGB]/4-[DGB]/4-[DGB]/4-[DGB]/4-[DGB]/4-[DGB]/4-[DGB]/-<[DGB]/ z/4 z/4 z/4 z/4 z/4 z/4 z/4 z/ | %17
[M:3/4] x6 |] %18
V:6
 x8 | x8 | x8 | x8 | x8 | x8 | x8 | x8 |[M:7/8] x7 |[M:1/4] x2 |[M:4/4] x8 | x8 | x8 | x8 | x8 | %15
[M:9/8] x9 | %16
[M:37/32] z/4 z/4 z/4 z/4 z/4 z/4 z/4 z/4 z/4 z/4 z/4 z/4 z/4 z/4 z/4 z/4 z/4 z/4 z/4 z/4 z/4 z/4 z/4 z/4 z/ [CFA]/4-[CFA]/4-[CFA]/4-[CFA]/4-[CFA]/-<[CFA]/ z/4 z/ | %17
[M:3/4] x6 |] %18

